X:1
T:Title
%%score { ( 1 3 4 ) | ( 2 5 ) }
L:1/8
Q:1/4=100
M:4/4
K:C
V:1 treble nm="Grand Piano"
V:3 treble 
V:4 treble 
V:2 bass 
V:5 bass 
V:1
 [EG]2 [Ec]>[FA] [EG][EG][CE][DF] | [EG][EG][Fc][FA] [EG]4 | GBBA [EG]2 [Gc]2 | z4 G4[K:bass] | %4
w: W.~H.~Doane * * * * * *||||
 E[EG][EG][FA] [EG]2 [Ec]2 | [Ee][Ed][Fc][FA] [EG]4 | [FA][GB][Ac]A G2 [Ge]2 | d2 cB [Ec]4 | %8
w: ||||
 [Gd]4 [Ge]4 | d4 z4 | [CFA][CGB][CAc][CFA] [CEG]2 [CGc]2 | [Gd]2 [Ge][Ge] [Gd]4 | [Ge]4 [Gc]4 | %13
w: |||||
 [Ac]4 z4 | [CFA][CGB][CAc][CFA] [CG]2 [Ge]2 | d2 c[DB] [Ec]4 |] %16
w: |||
V:2
 [C,C]2 [C,G,]>[C,C] [C,C][C,C][C,G,][C,G,] | [C,C][C,C][C,A,][C,C] [C,C]4 | %2
 [G,B,F][G,DF][G,DF][G,B,F][K:bass] [C,C]2 [E,C]2 | [D,D][D,B,][D,A,D][D,CD] [G,B,D]4 | %4
 [C,G,C][C,C][C,C][C,C] [C,C]2 [C,G,]2 | [C,G,][C,G,][C,A,][C,C] [C,C]4 | %6
 [F,C][F,C][F,C][F,CF] [E,C]2 [C,C]2 | [G,B,F]2 [G,E][K:bass][G,D] [C,G,]4 | [G,B,]G,G,G, C2 C,2 | %9
 G2[K:bass] z2 z4 | F,F,F,F, C,2 E,2 | [G,B,]2 [C,C][C,C] [G,B,]4 | [C,C]C,C,C, C,2 E,2 | %13
 F,F,F,F, F,4 | F,F,F,F, E,2 [C,C]2 | [G,B,F]2 [G,E][K:bass][G,,G,] [C,G,]4 |] %16
V:3
 x8 | x8 | x8 | [GB][Gd]cA z[K:bass] F,E,D, | x8 | x8 | x8 | x8 | z B,B,B, z2 C2 | z2 F2 z4 | x8 | %11
 x8 | z CCC E2 C2 | CCCC [CFA]4 | x8 | x8 |] %16
V:4
 x8 | x8 | x8 | x5[K:bass] x3 | x8 | x8 | x8 | x8 | x8 | z B, z B, [CEc]4 | x8 | x8 | x8 | x8 | %14
 x8 | x8 |] %16
V:5
 x8 | x8 | x4[K:bass] x4 | x8 | x8 | x8 | x8 | x3[K:bass] x5 | x8 | [G,B,]G,[K:bass][G,B,]G, C,4 | %10
 x8 | x8 | x8 | x8 | x8 | x3[K:bass] x5 |] %16

